X: 42
T:Shepherds' Hey (Bampton)
M:2/2
L:1/8
Q:1/2=88
O:England; Oxfordshire; Bampton.
B:Lionel Bacon, A Handbook of Morris Dances
Z:http://www.themorrisring.org/music/handbook-morris-dances
P:AA3B3(AB3)2A
K:G
P:A
|:D|BGdB c2c2  |BcdB A2A2|GBdB c2Bc|d2D2 G3:|
P:B
  B|d2B2 c3d/c/|B2G2 A4  |GBdB c2Bc|d2ef g2a//g//f//e//|
   |d2B2 c3d/c/|B2G2 A4  |GBdB c2Bc|d2D2 G3||

